X: 10
T: Oh Dear Mother My Toes are Sore
Z: Nigel Gatherer
M: 6/8
L: 1/8
K: Am
e2^f edB | GA>B AGE | CD2 ^F/E/DF | A3 A z2 :|
e2^f g2a | ge^c dzg | e>ge dBG | ABA GEC |
D3 ^F/E/DF | A3 A z2 :|
